src/dsmComponents/Icons/fall-detected-20px.svg

<?xml version="1.0" encoding="UTF-8"?>
<svg width="20px" height="16px" viewBox="0 0 20 16" version="1.1" xmlns="http://www.w3.org/2000/svg" xmlns:xlink="http://www.w3.org/1999/xlink">
    <!-- Generator: Sketch 59.1 (86144) - https://sketch.com -->
    <title>fall-detected-20px</title>
    <desc>Created with Sketch.</desc>
    <defs>
        <path d="M16.2219195,8.75923582 L19.3213387,9.06014551 C19.7342091,9.11029712 20.034899,9.49001648 19.9967345,9.91988746 C19.9574135,10.3593111 19.6093071,10.7020138 19.1825588,10.718731 L15.2597118,10.6303687 L13.6764637,9.17000142 L9.66687926,13.4113951 C9.09788141,14.0084381 8.25826263,14.215015 7.49728583,13.9439574 L3.79764331,13.7767854 L1.66968387,15.7243397 C1.29035197,16.0718188 0.725980117,16.0933123 0.323518223,15.7744914 C0.309640227,15.7649387 0.29691873,15.7541919 0.286510233,15.7446392 C-0.0581266762,15.4377591 -0.0974476658,14.9004204 0.199772756,14.5445827 L2.66080411,11.5939961 C2.88516505,11.4626466 3.14537748,11.4208536 3.39633791,11.4769757 L6.1071732,11.3396558 C6.19159768,10.9253079 6.38704613,10.5467826 6.66923205,10.247067 L9.1256374,7.65351214 L10.3804396,6.3818105 L9.01692643,5.35012016 C8.82263448,5.20205349 8.68732402,4.98114757 8.64222053,4.73158359 L7.9899547,1.08365071 C7.90668672,0.616763066 8.18193365,0.160622196 8.62602953,0.0304668172 L8.62834253,0.0304668172 C9.05971692,-0.0925240456 9.5061258,0.167786713 9.62640177,0.614374894 L10.5122805,3.9088583 L12.2400911,4.88084434 C12.3198896,4.92621961 12.392749,4.98353574 12.4586695,5.05040456 C12.4586695,5.05040456 14.6722099,7.00392933 14.7254089,7.14483149 L16.2219195,8.75923582 Z M17.4084882,5.23668198 C16.4439675,6.25523738 14.8780669,6.25523738 13.9123896,5.23668198 C12.9467124,4.21573841 12.9467124,2.56312332 13.9123896,1.54337384 C14.8780669,0.524818441 16.4439675,0.524818441 17.4084882,1.54337384 C18.3741655,2.56312332 18.3741655,4.21573841 17.4084882,5.23668198 L17.4084882,5.23668198 Z M6.88781049,8.56698797 C6.88781049,8.56698797 5.46531587,10.0787009 5.32190991,10.2769192 L3.40790291,7.86486537 L0.756049109,7.37648418 C0.302701229,7.29050998 -0.0188056865,6.87257987 0.000854808273,6.39733362 C0.00201130797,6.38539276 0.00201130797,6.37225781 0.00316780766,6.35912287 C0.0413322976,5.92566963 0.4125687,5.60565457 0.832378089,5.6462535 L4.50889062,6.03313738 L6.88781049,8.56698797 Z" id="path-1"></path>
    </defs>
    <g id="Final" stroke="none" stroke-width="1" fill="none" fill-rule="evenodd">
        <g id="All-Nucleo-Icons" transform="translate(-463.000000, -3353.000000)">
            <g id="Solo/Nucleo/20px/fall-detected" transform="translate(461.000000, 3349.000000)">
                <g transform="translate(2.000000, 4.000000)" id="fall-detected">
                    <g>
                        <mask id="mask-2" fill="white">
                            <use xlink:href="#path-1"></use>
                        </mask>
                        <use id="Mask" fill="#000000" xlink:href="#path-1"></use>
                        <g id="colour/neutral/chia" mask="url(#mask-2)" fill="#737373">
                            <g transform="translate(-22.000000, -23.000000)" id="Colour">
                                <rect x="0" y="0" width="64" height="64"></rect>
                            </g>
                        </g>
                    </g>
                </g>
            </g>
        </g>
    </g>
</svg>

<svg width="20" height="16" xmlns="http://www.w3.org/2000/svg" xmlns:xlink="http://www.w3.org/1999/xlink"><defs><path d="M16.222 8.76l3.1.3c.412.05.713.43.675.86a.864.864 0 01-.814.799l-3.923-.089-1.584-1.46-4.01 4.241a2.038 2.038 0 01-2.169.533l-3.7-.167-2.127 1.947a1.032 1.032 0 01-1.383.02.87.87 0 01-.087-1.2l2.46-2.95c.225-.131.485-.173.736-.117l2.711-.137c.085-.415.28-.793.562-1.093l2.457-2.593 1.254-1.272L9.017 5.35a1.001 1.001 0 01-.375-.618L7.99 1.084A.924.924 0 018.626.03h.002a.809.809 0 01.998.584l.886 3.295 1.728.972c.08.045.153.103.219.17 0 0 2.213 1.953 2.266 2.094l1.497 1.614zm1.186-3.523a2.382 2.382 0 01-3.496 0c-.965-1.021-.965-2.674 0-3.694a2.382 2.382 0 013.496 0c.966 1.02.966 2.673 0 3.694zm-10.52 3.33s-1.423 1.512-1.566 1.71L3.408 7.865.756 7.376a.947.947 0 01-.755-.979l.002-.038a.77.77 0 01.83-.713l3.676.387 2.379 2.534z" id="fall-detected-20px_svg__a"/></defs><use fill="#737373" xlink:href="#fall-detected-20px_svg__a" fill-rule="evenodd"/></svg>
